X:18518
T:Wars Alarms. JC.242
M:C
L:1/8
Q:120
S:John Clare,Poet,Helpstone (1793-1864)
R:Air
O:England4
A:Northamptonshire
N:Irregular time in the MS.
Z:P Headford
K:G
"As Writ"d2B2e2A3c|BGEAG2ED|G2G2G>AB>c|{Bc}d2cBB2A4|!d2BeA3c|
BGEAG2FED2|G2G2G>AB>c|B2A2G4:|!:e2ed eBcB|c2cB BA GF|
c2F2B2e2|BAGFE3F|!
G2G2Ge2d|{d}c>BB2A>G|(G2F3)E D|d2BeA3ABc2|B2A2G4:|]
W:Song text exists. See Deacon.


